X:1
T:Title
%%score { ( 1 3 ) | ( 2 4 ) }
L:1/8
M:4/4
K:E
V:1 treble nm="Grand Piano"
V:3 treble 
V:2 bass 
V:4 bass 
V:1
 z4 z2[Q:1/4=92] [EG]>[FA] | [GB]>[GB] [GB]>[GB] [Ac]>[GB] [EG]>[GB] |[M:3/4] e>e (3edc [GB]2 | %3
[M:1/4] (3EFG |[M:4/4] A>A A>A [DA]>[Ad] [Ad]>[Ac] |[M:3/4] [AB]>[Ac] [FA]>[DB] [EG]2 | %6
[M:1/4] [EG]>[FA] |[M:4/4] [GB]>[GB] [GB]>[GB] [Ac]>[GB] [EG]>[GB] | %8
[M:3/4] [Ge]>[Ge] [Ge]>[Bd] c2 |[M:1/4] c>c |[M:4/4] [GB]>[GB] [GB]>[GB] [Ge]>[Ge] [GB]>[EG] | %11
[M:3/4] [DB]>[DB] (3[D-B]D[A,DF] [G,E]2 |[M:1/4] [G,E]>[G,E] | %13
[M:4/4] [CEA]2 [CEA]>[CEA] [EAc]2 [CAe]2 | B->[GB-] [GB-]>[GB-] [GB]2 G>[FA] | %15
 [GB]2 [Ge]>[Ge] [Fd]2 [Ec]2 |[M:3/4] B->[EB-] [FB-]>[GB-] [AB]2 |[M:1/4] [B,DB]>[B,FA] | %18
[M:4/4] [B,EG]2 [EGB]2 [Ge]3 [GB] |[M:9/8] c2 c- c e2- e[Bd]c |[M:4/4] B2 G[EB] [DB][DA] [DF]2 | %21
[M:3/4] E6 |] %22
V:2
 z4 z2 [E,B,]>[E,B,] | [E,E]>[E,E] [E,E]>[E,E] [E,E]>[E,E] [E,B,]>[E,=D] | %2
[M:3/4][K:treble] [A,CA]>[A,CA] (3:2:2[A,CA]2 [A,EA][K:bass] [E,E]2 | %3
[M:1/4] (3[G,B,-][F,B,D][E,B,E] | %4
[M:4/4] [F,B,D]>[F,B,D] [F,B,D]>[F,B,D] [B,,B,]>[B,,B,] [B,,B,]>[B,,B,] | %5
[M:3/4] [D,B,]>[D,B,] [D,B,]>[B,,B,] [E,B,]2 |[M:1/4] [E,B,]>[E,B,] | %7
[M:4/4] [E,E]>[E,E] [E,E]>[E,E] [E,E]>[E,E] [E,B,]>[E,E] | %8
[M:3/4] [E,B,]>[E,B,] [E,B,]>[K:treble][G,E] [A,EA]2 |[M:1/4] [A,EA]>[A,EA] | %10
[M:4/4][K:bass] [E,E]>[E,E] [E,E]>[E,E] [E,B,]>[E,B,] [E,B,]>[E,B,] | %11
[M:3/4] [B,,B,]>[B,,F,] (3[B,,F,]-[B,,F,A]B,, E,2 |[M:1/4] E,>E, |[M:4/4] A,,2 A,,>A,, A,,2 A,,2 | %14
 z z/ E/ E>E E2 [E,B,E]>[E,B,] | [E,E]2 [E,B,]>[E,B,] [F,B,]2 [F,^A,]2 | %16
[M:3/4] z z/[K:treble] C/ D>E F2 |[M:1/4][K:bass] B,,>B,, |[M:4/4] E,2 E,2 [E,B,]3 [E,E] | %19
[M:9/8][K:treble] [A,EA]2 [A,EA]- [A,EA] [A,CA]2- [A,CA] z A | %20
[M:4/4] [B,EG]2[K:bass] [B,E][B,,G,] [B,,F,][B,,F,] [B,,A,]2 |[M:3/4] [E,G,]6 |] %22
V:3
 x8 | x8 |[M:3/4] x6 |[M:1/4] x2 |[M:4/4] x8 |[M:3/4] x6 |[M:1/4] x2 |[M:4/4] x8 |[M:3/4] x6 | %9
[M:1/4] x2 |[M:4/4] x8 |[M:3/4] x6 |[M:1/4] x2 |[M:4/4] x8 | [EG]2 z2 z4 | x8 | %16
[M:3/4] [B,D]2 z2 z2 |[M:1/4] x2 |[M:4/4] x8 |[M:9/8] x9 |[M:4/4] x8 |[M:3/4] x6 |] %22
V:4
 x8 | x8 |[M:3/4][K:treble] x4[K:bass] x2 |[M:1/4] x2 |[M:4/4] x8 |[M:3/4] x6 |[M:1/4] x2 | %7
[M:4/4] x8 |[M:3/4] x7/2[K:treble] x5/2 |[M:1/4] x2 |[M:4/4][K:bass] x8 |[M:3/4] x6 |[M:1/4] x2 | %13
[M:4/4] x8 | E,6 z2 | x8 |[M:3/4] B,,6[K:treble] |[M:1/4][K:bass] x2 |[M:4/4] x8 | %19
[M:9/8][K:treble] z3 z3 z [A,E]2 |[M:4/4] x2[K:bass] x6 |[M:3/4] x6 |] %22

